dist/intermediate-svg/tag.svg

<?xml version="1.0" encoding="utf-8"?><svg width="12" height="12" fill="none" xmlns="http://www.w3.org/2000/svg" viewBox="0 0 12 12"><path d="M11.8386 6.51121L5.4888 0.161428C5.38117 0.0538051 5.27354 0 5.11211 0H0.538117C0.215247 0 0 0.215247 0 0.538117V5.11211C0 5.27354 0.0538051 5.38117 0.161428 5.4888L6.51121 11.8386C6.72646 12.0538 7.04933 12.0538 7.26457 11.8386L11.8386 7.26457C12.0538 7.10314 12.0538 6.72646 11.8386 6.51121ZM3.2287 4.30493C2.63677 4.30493 2.15247 3.82063 2.15247 3.2287C2.15247 2.63677 2.63677 2.15247 3.2287 2.15247C3.82063 2.15247 4.30493 2.63677 4.30493 3.2287C4.30493 3.82063 3.82063 4.30493 3.2287 4.30493Z" fill="#0094FF"/></svg>

<?xml version="1.0" encoding="utf-8"?><svg width="12" height="12" fill="none" xmlns="http://www.w3.org/2000/svg" viewBox="0 0 12 12"><path d="M11.839 6.511L5.489.161A.489.489 0 005.112 0H.538C.215 0 0 .215 0 .538v4.574c0 .162.054.27.161.377l6.35 6.35a.52.52 0 00.754 0l4.574-4.574c.215-.162.215-.539 0-.754zm-8.61-2.206a1.08 1.08 0 01-1.077-1.076A1.08 1.08 0 013.23 2.152 1.08 1.08 0 014.305 3.23a1.08 1.08 0 01-1.076 1.076z" fill="#0094FF"/></svg>
